X:100
%%etbk:tnset id:522,pos:1,rep:3x,ant:
%%etbk:wsite https://thesession.org/tunes/1026
%%etbk:video src:ytube,cde:a8vOBDwJ4qU,desc:17:15
%%etbk:pldat 2016-09-17T14:13,2016-09-16T15:35,2016-09-15T18:00,2016-09-13T15:18,2016-09-12T18:06,2016-09-11T15:07
T: The Trip To Herve's
Z: Piano Box Version by Martin Fleischmann
H: Created 2016-09-11 /  Last Modified 2016-09-15
R: reel
M: 4/4
L: 1/8
K: Dmaj
|:!2!F!4!AA!2!F !1!ABd!4!e|!3!faaf !1!dafd|!2!B2dB !1!A!3!FDE|!3!FEED EF!1!D!1!E|
!2!FAAF ABde|f2af dafd|!2!B2dB !1!A!3!FEA| EFFE D2z2:||
|:!3!A!4!BBB !5!d2BA|!1!EFFE FGF!1!E|!1!D!1!EFG !4!A2!1!D!1!E|FGA2 FGAF|
ABBB d2BA|EFFE FGFE|!1!D!1!EFG ABAG|!2!(3FGA EG FDEF|
!1!GABc !5!d2!4!BA|!1!EFFE FFFz|DEFG A2DE|FGA2 FGA2|
!5!B2!2!F!4!A2!1!EF2|!1!DEE!1!D !1!EFGA|!5!B2FA2EF2|DEED FGF!1!E||


